X:1
T: The Chequered Court
T: 8 x 32J3C (Duncan Brown / RSCDS Book 42)
P: Lady Charlotte Murray
C: Niel Gow, arr. T. Traub, 2-26-2004
L: 1/8
M: 6/8
%
K: D
|: A/G/|"D"F2 D DFA|dAF AFD|"C"E/=F/GE =CEG|=cGE =CEG|"D"F2 D DFD|dFD AFD|"C"G=cG "A7"EFG|"D"AFD D2 :|
a/g/|"D"f2 d dfd|"D"afd "G7"de=f|"C"e2 =c cec|"C"ge=c "A7"efg|"D"f2 d dfd|"D"afd "A"efg|"D"fdf "A7"ece|"D"dAF D2||
a/g/|"D"f2 d dfd|"D"afd "G7"de=f|"C"e2 =c cec|"C"ge=c "A7"efg|"D"afa "A7"geg|"D"fdf "A"edc|"D"Adc "A"cBc|"D"dAF D2 |]
